static/icons/cpp.svg

<svg height="288" preserveAspectRatio="xMidYMid" viewBox="0 0 256 288" width="256" xmlns="http://www.w3.org/2000/svg"><path d="m255.986979 84.5904965c-.002004-4.8378994-1.036693-9.1128797-3.12911-12.7818704-2.055356-3.607891-5.133381-6.6318286-9.262123-9.0227325-34.080647-19.6510865-68.194348-39.2420749-102.263978-58.91319416-9.184997-5.30265825-18.090538-5.1093426-27.207424.26943995-13.56515 8.00006261-81.4810436 46.91059621-101.7190885 58.63273621-8.3346089 4.8248782-12.39023097 12.208935-12.39223424 21.8066061-.01302126 39.5195283 0 79.0380543-.01302126 118.5585843 0 4.731726.99262076 8.92357 2.99288682 12.537471 2.05635765 3.717069 5.17745381 6.824143 9.40135068 9.269135 20.2390465 11.72214 88.1639555 50.629669 101.7260995 58.631734 9.120893 5.381788 18.026434 5.574102 27.214436.26944 34.070631-19.672121 68.186336-39.262107 102.271991-58.913194 4.223897-2.44399 7.344993-5.553067 9.401351-9.267131 1.997261-3.613901 2.991885-7.805746 2.991885-12.538473 0 0 0-79.018022-.013021-118.5385515" fill="#649ad2"/><path d="m128.391639 143.475645-125.39875218 72.201892c2.05635765 3.717069 5.17745381 6.824143 9.40135068 9.269135 20.2390465 11.72214 88.1639555 50.629669 101.7260995 58.631734 9.120893 5.381788 18.026434 5.574102 27.214436.26944 34.070631-19.672121 68.186336-39.262107 102.271991-58.913194 4.223897-2.44399 7.344993-5.553067 9.401351-9.267131z" fill="#004482"/><path d="m91.2499941 164.862566c7.2969145 12.7388 21.0143129 21.330829 36.7500059 21.330829 15.832852 0 29.628378-8.701207 36.888232-21.57623l-36.496593-21.14152z" fill="#1a4674"/><path d="m255.986979 84.5904965c-.002004-4.8378994-1.036693-9.1128797-3.12911-12.7818704l-124.46623 71.6670189 124.616476 72.191876c1.997261-3.613901 2.989882-7.805746 2.991885-12.538473 0 0 0-79.018022-.013021-118.5385515" fill="#01589c"/><path d="m249.13479 148.636071h-9.7379v9.739903h-9.739903v-9.739903h-9.736899v-9.736899h9.736899v-9.7379h9.739903v9.7379h9.7379zm-121.13479-89.7886081c31.134857 0 58.357629 16.7399985 73.169171 41.7082191l.445027.759122-37.001416 21.30679c-7.332974-12.608587-20.978254-21.093442-36.612782-21.093442-23.379174 0-42.3331221 18.952947-42.3331221 42.332121 0 7.645484 2.0383283 14.812185 5.5831162 21.002293 7.2969145 12.7388 21.0143129 21.330829 36.7500059 21.330829 15.658865 0 29.324933-8.511023 36.646534-21.153297l.241698-.422933 36.946326 21.405952c-14.648919 25.596795-42.22795 42.850968-73.834558 42.850968-31.5485128 0-59.0844739-17.18506-73.7544272-42.706733-7.1616937-12.459343-11.2593844-26.903929-11.2593844-42.307079 0-46.9506617 38.0611467-85.0128101 85.0138116-85.0128101zm75.864873 70.3138091v9.7379h9.736899v9.736899h-9.736899v9.739903h-9.7379v-9.739903h-9.7379v-9.736899h9.7379v-9.7379z" fill="#fff"/></svg>

<?xml version="1.0" encoding="UTF-8"?>
<svg width="256px" height="288px" viewBox="0 0 256 288" version="1.1" xmlns="http://www.w3.org/2000/svg" preserveAspectRatio="xMidYMid">
    <title>C++</title>
    <g>
        <path d="M255.986979,84.5904965 C255.984975,79.7525971 254.950286,75.4776168 252.857869,71.8086261 C250.802513,68.2007351 247.724488,65.1767975 243.595746,62.7858936 C209.515099,43.1348071 175.401398,23.5438187 141.331768,3.87269944 C132.146771,-1.42995881 123.24123,-1.23664316 114.124344,4.14213939 C100.559194,12.142202 32.6433004,51.0527356 12.4052555,62.7748756 C4.0706466,67.5997538 0.0150245322,74.9838106 0.0130212613,84.5814817 C0,124.10101 0.0130212613,163.619536 0,203.140066 C0,207.871792 0.992620764,212.063636 2.99288682,215.677537 C5.04924447,219.394606 8.17034063,222.50168 12.3942375,224.946672 C32.633284,236.668812 100.558193,275.576341 114.120337,283.578406 C123.24123,288.960194 132.146771,289.152508 141.334773,283.847846 C175.405404,264.175725 209.521109,244.585739 243.606764,224.934652 C247.830661,222.490662 250.951757,219.381585 253.008115,215.667521 C255.005376,212.05362 256,207.861775 256,203.129048 C256,203.129048 256,124.111026 255.986979,84.5904965" fill="#649AD2"></path>
        <path d="M128.391639,143.475645 L2.99288682,215.677537 C5.04924447,219.394606 8.17034063,222.50168 12.3942375,224.946672 C32.633284,236.668812 100.558193,275.576341 114.120337,283.578406 C123.24123,288.960194 132.146771,289.152508 141.334773,283.847846 C175.405404,264.175725 209.521109,244.585739 243.606764,224.934652 C247.830661,222.490662 250.951757,219.381585 253.008115,215.667521 L128.391639,143.475645" fill="#004482"></path>
        <path d="M91.2499941,164.862566 C98.5469086,177.601366 112.264307,186.193395 128,186.193395 C143.832852,186.193395 157.628378,177.492188 164.888232,164.617165 L128.391639,143.475645 L91.2499941,164.862566" fill="#1A4674"></path>
        <path d="M255.986979,84.5904965 C255.984975,79.7525971 254.950286,75.4776168 252.857869,71.8086261 L128.391639,143.475645 L253.008115,215.667521 C255.005376,212.05362 255.997997,207.861775 256,203.129048 C256,203.129048 256,124.111026 255.986979,84.5904965" fill="#01589C"></path>
        <path d="M249.13479,148.636071 L239.39689,148.636071 L239.39689,158.375974 L229.656987,158.375974 L229.656987,148.636071 L219.920088,148.636071 L219.920088,138.899172 L229.656987,138.899172 L229.656987,129.161272 L239.39689,129.161272 L239.39689,138.899172 L249.13479,138.899172 L249.13479,148.636071 Z M128,58.8474629 C159.134857,58.8474629 186.357629,75.5874614 201.169171,100.555682 L201.614198,101.314804 L164.612782,122.621594 C157.279808,110.013007 143.634528,101.528152 128,101.528152 C104.620826,101.528152 85.6668779,120.481099 85.6668779,143.860273 C85.6668779,151.505757 87.7052062,158.672458 91.2499941,164.862566 C98.5469086,177.601366 112.264307,186.193395 128,186.193395 C143.658865,186.193395 157.324933,177.682372 164.646534,165.040098 L164.888232,164.617165 L201.834558,186.023117 C187.185639,211.619912 159.606608,228.874085 128,228.874085 C96.4514872,228.874085 68.9155261,211.689025 54.2455728,186.167352 C47.0838791,173.708009 42.9861884,159.263423 42.9861884,143.860273 C42.9861884,96.9096113 81.0473351,58.8474629 128,58.8474629 Z M203.864873,129.161272 L203.864873,138.899172 L213.601772,138.899172 L213.601772,148.636071 L203.864873,148.636071 L203.864873,158.375974 L194.126973,158.375974 L194.126973,148.636071 L184.389073,148.636071 L184.389073,138.899172 L194.126973,138.899172 L194.126973,129.161272 L203.864873,129.161272 Z" fill="#FFFFFF"></path>
    </g>
</svg>
